projects/thanos/icon/white/thanos-icon-white.svg

<svg xmlns="http://www.w3.org/2000/svg" role="img" viewBox="2.41 2.16 355.42 355.17"><path fill="#fff" d="M9.49808 9.14822v341.59786h241.93485a99.66306 99.66306 0 0099.657-99.663V9.14822zm266.263 215.32837h12.75033v12.75018h-12.75035zm-4.00963-54.89h20.71531v20.72131h-20.71533zm-3.186-54.10261h27.09335v27.11729h-27.09343zm-43.739 159.90321h12.7381v12.75018h-12.75017zm-3.98558-55.53932h20.72129V240.587h-20.72129zm-3.186-53.44731h27.12344v27.09337h-27.09339zm3.186-27.00322v-20.71528h20.72129v20.71527zm-97.82954 135.98981h12.75021v12.75018h-12.75021zm-3.98558-54.8901h20.72131v20.69121h-20.72124zm3.98558-34.1748v-12.75019h12.75021v12.75018zm-3.98558-67.64019h20.72131v20.71527h-20.72124zM72.10081 275.38715H84.875v12.75018H72.10081zm0-50.91056H84.875v12.75018H72.10081zm-3.97955-54.89h20.7153v20.72131h-20.7153zm-3.19206-54.10265h27.09939v27.11729H64.9292zM53.01459 52.67679h254.53469v50.91052H205.74622v203.6302h-50.90449v-203.6302H53.01459z"/></svg>

<svg id="Layer_1" data-name="Layer 1" xmlns="http://www.w3.org/2000/svg" viewBox="0 0 360 360"><defs><style>.cls-1{fill:#fff;}</style></defs><title>thanos-icon-white</title><path class="cls-1" d="M9.49808,9.14822V350.74608H251.43293a99.66306,99.66306,0,0,0,99.657-99.663V9.14822Zm266.263,215.32837h12.75033v12.75018H275.76106Zm-4.00963-54.89h20.71531v20.72131H271.75143Zm-3.186-54.10261h27.09335v27.11729H268.56537Zm-43.739,159.90321h12.7381v12.75018H224.81438Zm-3.98558-55.53932h20.72129V240.587H220.84087Zm-3.186-53.44731h27.12344v27.09337H217.68492Zm3.186-27.00322V118.68206h20.72129v20.71527ZM123.01133,275.38715h12.75021v12.75018H123.01133Zm-3.98558-54.8901h20.72131v20.69121H119.02582Zm3.98558-34.1748V173.57206h12.75021v12.75018Zm-3.98558-67.64019h20.72131v20.71527H119.02582ZM72.10081,275.38715H84.875v12.75018H72.10081Zm0-50.91056H84.875v12.75018H72.10081Zm-3.97955-54.89h20.7153v20.72131H68.12126ZM64.9292,115.48394H92.02859v27.11729H64.9292ZM53.01459,52.67679H307.54928v50.91052H205.74622v203.6302H154.84173V103.58731H53.01459Z"/></svg>
